P3
16 16
255
9 16 15 9 16 15 9 16 15 9 16 15 9 16 15 9 16 15 9 16 15 9 16 15 9 16 15 9 16 15 9 16 15 9 16 15 9 16 15 9 16 15 9 16 15 9 16 15
9 16 15 9 16 15 9 16 15 9 16 15 9 16 15 9 16 15 200 255 90 200 255 90 200 255 90 200 255 90 9 16 15 9 16 15 9 16 15 9 16 15 9 16 15 9 16 15
9 16 15 9 16 15 9 16 15 9 16 15 9 16 15 200 255 90 200 255 90 200 255 90 200 255 90 200 255 90 200 255 90 9 16 15 9 16 15 9 16 15 9 16 15 9 16 15
9 16 15 9 16 15 9 16 15 9 16 15 200 255 90 200 255 90 9 16 15 9 16 15 9 16 15 9 16 15 200 255 90 200 255 90 9 16 15 9 16 15 9 16 15 9 16 15
9 16 15 9 16 15 9 16 15 200 255 90 200 255 90 9 16 15 9 16 15 9 16 15 9 16 15 9 16 15 9 16 15 200 255 90 200 255 90 9 16 15 9 16 15 9 16 15
9 16 15 9 16 15 200 255 90 200 255 90 9 16 15 9 16 15 9 16 15 9 16 15 9 16 15 9 16 15 9 16 15 9 16 15 200 255 90 200 255 90 9 16 15 9 16 15
9 16 15 200 255 90 200 255 90 9 16 15 9 16 15 9 16 15 9 16 15 9 16 15 9 16 15 9 16 15 9 16 15 9 16 15 9 16 15 200 255 90 200 255 90 9 16 15
200 255 90 200 255 90 9 16 15 9 16 15 9 16 15 9 16 15 9 16 15 9 16 15 9 16 15 9 16 15 9 16 15 9 16 15 9 16 15 9 16 15 200 255 90 200 255 90
9 16 15 200 255 90 200 255 90 9 16 15 9 16 15 9 16 15 9 16 15 9 16 15 9 16 15 9 16 15 9 16 15 9 16 15 9 16 15 200 255 90 200 255 90 9 16 15
9 16 15 9 16 15 200 255 90 200 255 90 9 16 15 9 16 15 9 16 15 9 16 15 9 16 15 9 16 15 9 16 15 9 16 15 200 255 90 200 255 90 9 16 15 9 16 15
9 16 15 9 16 15 9 16 15 200 255 90 200 255 90 9 16 15 9 16 15 9 16 15 9 16 15 9 16 15 9 16 15 200 255 90 200 255 90 9 16 15 9 16 15 9 16 15
9 16 15 9 16 15 9 16 15 9 16 15 200 255 90 200 255 90 9 16 15 9 16 15 9 16 15 9 16 15 200 255 90 200 255 90 9 16 15 9 16 15 9 16 15 9 16 15
9 16 15 9 16 15 9 16 15 9 16 15 9 16 15 200 255 90 200 255 90 200 255 90 200 255 90 200 255 90 200 255 90 9 16 15 9 16 15 9 16 15 9 16 15 9 16 15
9 16 15 9 16 15 9 16 15 9 16 15 9 16 15 9 16 15 200 255 90 200 255 90 200 255 90 200 255 90 9 16 15 9 16 15 9 16 15 9 16 15 9 16 15 9 16 15
9 16 15 9 16 15 9 16 15 9 16 15 9 16 15 9 16 15 9 16 15 9 16 15 9 16 15 9 16 15 9 16 15 9 16 15 9 16 15 9 16 15 9 16 15 9 16 15
9 16 15 9 16 15 9 16 15 9 16 15 9 16 15 9 16 15 9 16 15 9 16 15 9 16 15 9 16 15 9 16 15 9 16 15 9 16 15 9 16 15 9 16 15 9 16 15
